X:55
%%etbk:tnset id:19,pos:1,rep:3x,ant:
%%etbk:wsite http://www.thesession.org/tunes/display/2083
%%etbk:skill ?
%%etbk:pldat 2013-11-25T19:40,2013-11-24T15:30,2013-05-22T16:23,2013-05-15T17:13
T: Paddy Lynn's Delight
T: Sonny's Return
Z: Piano Box Version by Martin Fleischmann
H: Created 2013-02-19 /  Last Modified 2013-02-19
M: 4/4
L: 1/8
R: reel
K: Ador
"am"!5!e!1!AAB !3!cB!1!A!2!G | "G"!1!E!2!G{B}!2!G!2!G !3!AGE!4!d | "am"!5!e!1!AAB !3!cBAB | !3!c!4!d!2!eg !5!aged |
"am"!4!{g}!2!e!1!AAB !3!cB!1!A!2!G | "G"!1!E2!2!GG !3!AGE!2!G | "am"!3!c!4!d!2!eg !5!age!1!d |1 "em"!3!c!1!A!2!B!1!G "am"!1!A4:|2 "em"cABG "am"A3!2!B|
|:"C"!1!c2!3!ec !4!gc!3!ed | !1!cc!3!eg !5!ag!3!e!2!d | !1!c2!3!ec !4!gc!3!e!1!c | "G"!4!d2ed !3!c!1!AA!2!B |
"C"!1!c2!3!ec !4!gc!3!e!2!d | !1!cc!3!eg !5!a!4!g!2!e!1!d | "am"!2!e2!5!ag !2!eee!1!d |1 "em"!3!c!1!A!2!B!1!G "am"!1!A3!2!B |2 "em"!3!c!1!A!2!B!1!G "am"!1!A4||
